X: 11362
Q: "Reel."
M: C
L: 1/8
K: Bm
f |\
dB B/f/f dcBd | cAce aece |\
dB B/f/f dcBc | dfec {c}B2B :|\
|: f |\
dBdf {^a}b2fd | cAce {^g}a2ec |
dBdf {^a}b2fd | ceac {c}B2Bf |\
dBdf bfdB | cAce aecA |\


